X: 33496
T: Raheen, The
R: reel
M: 4/4
K: Dmajor
D3F EDB,A,|D2DE FAA2|Beef e2de|fdef dBAF
D3F EDB,A,|D2 DE FAA2|Beef e2dB|1 AFEF D2FE:|2 AFEF D3A||
Adde f2fg|afdf edBd|Adde f2fg|afdf e3d|
Adde f2fg|afdf edBc|d3B ABdB|1 AF EF D3A:|2 AF EF D3A,||

